X:416
T: Beili dachu shi qionghan
N: C1451
O: China, Hubei, Enshi
S: I, 442]
R: Shange, Dachuge]
M: 2/4
L: 1/16
K: D
d2f2Bded | B8 | d2B2A2B2 | d8
d2f2deBd | e6f2 | d2B2A2B2 | B8
deB2d4 | B2BAF4 | A2A2BAB2 | A8

